X: 303
M: C
L: 1/8
K: G
|:\
d4 B3c | d4 G4 | (ABcd) c2B2 | A4 |\
(Bcde) d2d2 | g4 d4 | c2BA TA3G | G8 :|\
|:\
e^def e2f2 | g4 e4 | f2ed T^c3d | d8 |\
d4 B3c | d4 G4 | (ABcd) c2B2 | A8 |\

